svgs/thin/lock-keyhole-open.svg

<svg xmlns="http://www.w3.org/2000/svg" viewBox="0 0 576 512"><!--! Font Awesome Pro 6.4.2 by @fontawesome - https://fontawesome.com License - https://fontawesome.com/license (Commercial License) Copyright 2023 Fonticons, Inc. --><path d="M448 16c-61.9 0-112 50.1-112 112v64h48c35.3 0 64 28.7 64 64V448c0 35.3-28.7 64-64 64H64c-35.3 0-64-28.7-64-64V256c0-35.3 28.7-64 64-64H320V128C320 57.3 377.3 0 448 0s128 57.3 128 128v88c0 4.4-3.6 8-8 8s-8-3.6-8-8V128c0-61.9-50.1-112-112-112zM64 208c-26.5 0-48 21.5-48 48V448c0 26.5 21.5 48 48 48H384c26.5 0 48-21.5 48-48V256c0-26.5-21.5-48-48-48H336 320 64zM256 368c8.8 0 16-7.2 16-16s-7.2-16-16-16H192c-8.8 0-16 7.2-16 16s7.2 16 16 16h64zm0-48c17.7 0 32 14.3 32 32s-14.3 32-32 32H192c-17.7 0-32-14.3-32-32s14.3-32 32-32h64z"/></svg>

<svg xmlns="http://www.w3.org/2000/svg" viewBox="0 0 576 512"><!--! Font Awesome Pro 6.1.1 by @fontawesome - https://fontawesome.com License - https://fontawesome.com/license (Commercial License) Copyright 2022 Fonticons, Inc. --><path d="M256 320C273.7 320 288 334.3 288 352C288 369.7 273.7 384 256 384H192C174.3 384 160 369.7 160 352C160 334.3 174.3 320 192 320H256zM272 352C272 343.2 264.8 336 256 336H192C183.2 336 176 343.2 176 352C176 360.8 183.2 368 192 368H256C264.8 368 272 360.8 272 352zM448 16C386.1 16 336 66.14 336 128V192H384C419.3 192 448 220.7 448 256V448C448 483.3 419.3 512 384 512H64C28.65 512 0 483.3 0 448V256C0 220.7 28.65 192 64 192H320V128C320 57.31 377.3 0 448 0C518.7 0 576 57.31 576 128V216C576 220.4 572.4 224 568 224C563.6 224 560 220.4 560 216V128C560 66.14 509.9 16 448 16zM16 256V448C16 474.5 37.49 496 64 496H384C410.5 496 432 474.5 432 448V256C432 229.5 410.5 208 384 208H64C37.49 208 16 229.5 16 256z"/></svg>
